X:1
T:Dare to Be a Daniel
T:Philip Paul Bliss, 1873
T:Dare to Be a Daniel
T:Public Domain
T:Public Domain
C:Philip Paul Bliss, 1873
Z:Public Domain
%%score ( 1 2 ) ( 3 4 )
L:1/8
M:2/4
K:Ab
V:1 treble 
V:2 treble 
V:3 bass 
V:4 bass 
V:1
 [Ec]>[Ec] [DB][CA] | [CE][CA] [CA]2 | [EB]>[Ec] [EB]E | [Ec]4 | [Fd]>[Fd] [Fd][Fd] | %5
w: 1.~Stand- ing by a|pur- pose true,|Heed- ing God’s com-|Hon-|or them, the faith-|
w: 2.~Ma- ny might- y|men are lost|Dar- ing not to|Who|for God had been|
w: 3.~Ma- ny gi- ants,|great and tall,|Stalk- ing through the|Head-|long to the earth|
w: 4.~Hold the Gosp- el|ban- ner high!|On to vic- t’ry|Sa-|tan and his hosts|
 [Fd][Ec] [Ec][Ec] | [=DB]>[DF] [DB][Dc] | [EB]4 ||"^Refrain" [Ec]>[Ec] [DB][CA] | [CE]2 [CA]2 | %10
w: ful few! All hail|to Dan- iel’s band!||||
w: a host By join-|ing Dan- iel’s band.|Dare|to be a Dan-|iel, Dare|
w: would fall, If met|by Dan- iel’s band.||||
w: de- fy, And shout|for Dan- iel’s band.||||
 [EB]>[Ec] [EB]E | [Ec]4 | [Fd]>[Fc] [FB][FA] | [EG][DF] ([DB][Fd]) | [Ec]>[Ed] [Ec][DB] | [CA]4 |] %16
w: ||||||
w: to stand a- lone!|to|have a pur- pose|firm! Dare to *|make it known. *||
w: ||||||
w: ||||||
V:2
 x4 | x4 | x3 E | x4 | x4 | x4 | x4 | x4 || x4 | x4 | x3 E | x4 | x4 | x4 | x4 | x4 |] %16
w: ||mand,||||||||||||||
w: ||stand,||||||||Dare||||||
w: ||land,||||||||||||||
w: ||grand!||||||||||||||
V:3
 [A,,A,]>[A,,A,] [A,,A,][A,,A,] | [A,,A,][A,,E,] [A,,E,]2 | [E,G,]>[E,G,] [E,G,][E,G,] | A,4 | %4
 [D,A,]>[D,A,] [D,A,][D,A,] | [A,,A,][A,,A,] [A,,A,][A,,A,] | [B,,A,]>[B,,A,] [B,,A,][B,,A,] | %7
 [E,G,]4 || [A,,A,]>[A,,A,] [A,,A,][A,,A,] | [A,,A,]2 [A,,A,]2 | [E,G,]>[E,G,] [E,G,][E,G,] | %11
 [A,,A,]4 | [D,A,]>[D,A,] [D,A,][D,A,] | [D,A,][D,A,] [D,A,]2 | [E,A,]>[E,B,] [E,A,][E,G,] | %15
 [A,,A,]4 |] %16
V:4
 x4 | x4 | x4 | A,4 | x4 | x4 | x4 | x4 || x4 | x4 | x4 | x4 | x4 | x4 | x4 | x4 |] %16

